img/golondrina-b.svg

<svg width="243" height="65" viewBox="0 0 243 65" fill="none" xmlns="http://www.w3.org/2000/svg">
<path d="M41.6155 0.196404C39.1813 0.383453 35.633 0.888489 32.534 1.50575C25.3906 2.92734 19.3894 5.0223 15.9254 7.30431C14.9142 7.96835 13.7814 9.03453 13.5005 9.58633C13.2384 10.1194 12.1992 13.4302 11.9651 14.4964C11.7404 15.5532 11.5813 15.8993 11.3285 15.8993C11.2255 15.8993 10.7948 15.5813 10.3735 15.1885C8.91302 13.8604 7.43378 13.0374 5.82346 12.6633C4.69063 12.4014 3.34246 12.682 1.26403 13.6173L0.09375 14.1504L0.402705 14.487C1.14233 15.3101 1.81641 16.554 2.38751 18.1439C3.46417 21.1835 4.40976 23.0165 6.40393 25.9532C8.89429 29.6288 11.6749 32.4813 14.8393 34.6043C18.6217 37.1388 22.8722 39.187 27.3193 40.6273C29.8284 41.4317 32.4498 42.7784 35.7172 44.9388C40.3796 48.0158 44.6956 51.654 50.8373 57.6676C52.354 59.1547 53.9362 60.6511 54.3482 60.9878C57.007 63.1669 59.9468 65 60.7894 65C60.9767 65 61.1358 64.9532 61.1358 64.8971C61.1358 64.5604 60.8362 64.3173 58.1399 62.4748C55.3967 60.6043 55.0316 60.2957 52.2885 57.6209C47.6729 53.1036 42.7389 48.5209 38.2263 44.5367C37.0279 43.4799 36.0449 42.6101 36.0449 42.5914C36.0449 42.5072 37.0373 42.9281 37.8705 43.3489C39.7243 44.3029 41.5874 45.5374 48.4499 50.3914C52.8596 53.5151 54.292 54.4878 56.9696 56.1806C61.9878 59.3604 66.6502 61.9511 67.989 62.3065C68.4852 62.4374 68.5788 62.3906 68.5039 62.082C68.4571 61.923 67.9984 61.5957 66.7345 60.8475C61.4073 57.6676 56.3236 54.2727 51.2586 50.5036C46.4183 46.9029 42.5798 43.6669 39.5464 40.618C37.7957 38.8597 36.925 37.8496 35.1087 35.446C34.2661 34.3424 33.2643 33.0518 32.8711 32.5935C31.9349 31.4806 30.2777 29.8345 29.3509 29.105C27.9653 28.0108 27.8061 27.8611 27.8061 27.6835C27.8061 27.5058 27.881 27.4964 29.2479 27.4964C31.6072 27.4964 32.0753 27.3374 33.6107 25.9906C34.1537 25.5137 37.1777 22.5396 40.3328 19.3691L46.0719 13.6079L45.9127 13.3086C45.8285 13.1496 45.3229 12.5043 44.7799 11.8777C44.2463 11.2511 43.8156 10.718 43.8343 10.6993C43.853 10.6806 45.0327 11.1108 46.4464 11.6532L49.0117 12.6353L50.1351 12.1957C53.9549 10.7086 62.5402 7.26691 64.3471 6.50935C67.4928 5.18129 69.0844 4.35827 68.8784 4.15252C68.8503 4.12446 68.3822 4.00288 67.8392 3.87194C67.2868 3.75036 65.3769 3.27338 63.5887 2.80575C57.2786 1.17842 53.7958 0.533089 49.3019 0.18705C47.8975 0.0748215 43.1134 0.0841675 41.6155 0.196404Z" fill="white"/>
<path d="M70.4205 23.9801H79.3267V48H85.4062V23.9801H94.3125V18.9091H70.4205V23.9801ZM95.8679 48H101.919V35.6562C101.919 32.9716 103.879 31.125 106.55 31.125C107.388 31.125 108.538 31.267 109.107 31.4517V26.0824C108.567 25.9545 107.814 25.8693 107.203 25.8693C104.76 25.8693 102.757 27.2898 101.962 29.9886H101.734V26.1818H95.8679V48ZM117.832 48.4119C121.056 48.4119 123.144 47.0057 124.21 44.9744H124.38V48H130.119V33.2841C130.119 28.0852 125.715 25.8977 120.857 25.8977C115.63 25.8977 112.192 28.3977 111.354 32.375L116.951 32.8295C117.363 31.3807 118.656 30.3153 120.829 30.3153C122.888 30.3153 124.067 31.3523 124.067 33.142V33.2273C124.067 34.6335 122.576 34.8182 118.783 35.1875C114.465 35.5852 110.587 37.0341 110.587 41.9062C110.587 46.2244 113.67 48.4119 117.832 48.4119ZM119.565 44.2358C117.704 44.2358 116.369 43.3693 116.369 41.7074C116.369 40.0028 117.775 39.1648 119.906 38.8665C121.227 38.6818 123.386 38.3693 124.11 37.8864V40.2017C124.11 42.4886 122.221 44.2358 119.565 44.2358ZM154.373 26.1818H147.967L143.45 41.7926H143.222L138.691 26.1818H132.299L139.927 48H146.745L154.373 26.1818ZM157.469 48H163.521V26.1818H157.469V48ZM160.509 23.3693C162.313 23.3693 163.79 21.9915 163.79 20.3011C163.79 18.625 162.313 17.2472 160.509 17.2472C158.719 17.2472 157.242 18.625 157.242 20.3011C157.242 21.9915 158.719 23.3693 160.509 23.3693ZM174.589 48.4119C177.814 48.4119 179.902 47.0057 180.967 44.9744H181.138V48H186.876V33.2841C186.876 28.0852 182.473 25.8977 177.615 25.8977C172.388 25.8977 168.95 28.3977 168.112 32.375L173.709 32.8295C174.121 31.3807 175.413 30.3153 177.587 30.3153C179.646 30.3153 180.825 31.3523 180.825 33.142V33.2273C180.825 34.6335 179.334 34.8182 175.541 35.1875C171.223 35.5852 167.345 37.0341 167.345 41.9062C167.345 46.2244 170.428 48.4119 174.589 48.4119ZM176.322 44.2358C174.462 44.2358 173.126 43.3693 173.126 41.7074C173.126 40.0028 174.533 39.1648 176.663 38.8665C177.984 38.6818 180.143 38.3693 180.868 37.8864V40.2017C180.868 42.4886 178.979 44.2358 176.322 44.2358Z" fill="white"/>
</svg>

<?xml version="1.0" encoding="utf-8"?>
<!-- Generator: Adobe Illustrator 21.1.0, SVG Export Plug-In . SVG Version: 6.00 Build 0)  -->
<svg version="1.1" id="Capa_1" xmlns="http://www.w3.org/2000/svg" xmlns:xlink="http://www.w3.org/1999/xlink" x="0px" y="0px"
	 viewBox="0 0 186.9 65" style="enable-background:new 0 0 186.9 65;" xml:space="preserve">
<style type="text/css">
	.st0{fill:#FFFFFF;}
</style>
<path class="st0" d="M41.6,0.2c-2.4,0.2-6,0.7-9.1,1.3C25.4,2.9,19.4,5,15.9,7.3c-1,0.7-2.1,1.7-2.4,2.3c-0.3,0.5-1.3,3.8-1.5,4.9
	c-0.2,1.1-0.4,1.4-0.6,1.4c-0.1,0-0.5-0.3-1-0.7c-1.5-1.3-2.9-2.2-4.6-2.5c-1.1-0.3-2.5,0-4.6,1l-1.2,0.5l0.3,0.3
	c0.7,0.8,1.4,2.1,2,3.7c1.1,3,2,4.9,4,7.8c2.5,3.7,5.3,6.5,8.4,8.7c3.8,2.5,8,4.6,12.5,6c2.5,0.8,5.1,2.2,8.4,4.3
	c4.7,3.1,9,6.7,15.1,12.7c1.5,1.5,3.1,3,3.5,3.3c2.7,2.2,5.6,4,6.4,4c0.2,0,0.3,0,0.3-0.1c0-0.3-0.3-0.6-3-2.4
	c-2.7-1.9-3.1-2.2-5.9-4.9c-4.6-4.5-9.5-9.1-14.1-13.1C37,43.5,36,42.6,36,42.6c0-0.1,1,0.3,1.8,0.8c1.9,1,3.7,2.2,10.6,7
	c4.4,3.1,5.8,4.1,8.5,5.8c5,3.2,9.7,5.8,11,6.1c0.5,0.1,0.6,0.1,0.5-0.2c0-0.2-0.5-0.5-1.8-1.2c-5.3-3.2-10.4-6.6-15.5-10.3
	c-4.8-3.6-8.7-6.8-11.7-9.9c-1.8-1.8-2.6-2.8-4.4-5.2c-0.8-1.1-1.8-2.4-2.2-2.9c-0.9-1.1-2.6-2.8-3.5-3.5c-1.4-1.1-1.5-1.2-1.5-1.4
	c0-0.2,0.1-0.2,1.4-0.2c2.4,0,2.8-0.2,4.4-1.5c0.5-0.5,3.6-3.5,6.7-6.6l5.7-5.8l-0.2-0.3c-0.1-0.2-0.6-0.8-1.1-1.4
	c-0.5-0.6-1-1.2-0.9-1.2c0,0,1.2,0.4,2.6,1l2.6,1l1.1-0.4c3.8-1.5,12.4-4.9,14.2-5.7c3.1-1.3,4.7-2.2,4.5-2.4c0,0-0.5-0.1-1-0.3
	c-0.6-0.1-2.5-0.6-4.3-1.1c-6.3-1.6-9.8-2.3-14.3-2.6C47.9,0.1,43.1,0.1,41.6,0.2z"/>
<path class="st0" d="M70.4,24h8.9v24h6.1V24h8.9v-5.1H70.4V24z M95.9,48h6.1V35.7c0-2.7,2-4.5,4.6-4.5c0.8,0,2,0.1,2.6,0.3v-5.4
	c-0.5-0.1-1.3-0.2-1.9-0.2c-2.4,0-4.4,1.4-5.2,4.1h-0.2v-3.8h-5.9V48z M117.8,48.4c3.2,0,5.3-1.4,6.4-3.4h0.2v3h5.7V33.3
	c0-5.2-4.4-7.4-9.3-7.4c-5.2,0-8.7,2.5-9.5,6.5l5.6,0.5c0.4-1.4,1.7-2.5,3.9-2.5c2.1,0,3.2,1,3.2,2.8v0.1c0,1.4-1.5,1.6-5.3,2
	c-4.3,0.4-8.2,1.8-8.2,6.7C110.6,46.2,113.7,48.4,117.8,48.4z M119.6,44.2c-1.9,0-3.2-0.9-3.2-2.5c0-1.7,1.4-2.5,3.5-2.8
	c1.3-0.2,3.5-0.5,4.2-1v2.3C124.1,42.5,122.2,44.2,119.6,44.2z M154.4,26.2H148l-4.5,15.6h-0.2l-4.5-15.6h-6.4l7.6,21.8h6.8
	L154.4,26.2z M157.5,48h6.1V26.2h-6.1V48z M160.5,23.4c1.8,0,3.3-1.4,3.3-3.1c0-1.7-1.5-3.1-3.3-3.1c-1.8,0-3.3,1.4-3.3,3.1
	C157.2,22,158.7,23.4,160.5,23.4z M174.6,48.4c3.2,0,5.3-1.4,6.4-3.4h0.2v3h5.7V33.3c0-5.2-4.4-7.4-9.3-7.4c-5.2,0-8.7,2.5-9.5,6.5
	l5.6,0.5c0.4-1.4,1.7-2.5,3.9-2.5c2.1,0,3.2,1,3.2,2.8v0.1c0,1.4-1.5,1.6-5.3,2c-4.3,0.4-8.2,1.8-8.2,6.7
	C167.3,46.2,170.4,48.4,174.6,48.4z M176.3,44.2c-1.9,0-3.2-0.9-3.2-2.5c0-1.7,1.4-2.5,3.5-2.8c1.3-0.2,3.5-0.5,4.2-1v2.3
	C180.9,42.5,179,44.2,176.3,44.2z"/>
</svg>
